components/Company/logos/logo-bigcommerce.svg

<svg height="140" viewBox="0 0 400 140" width="400" xmlns="http://www.w3.org/2000/svg"><path d="m102.398914 46.8765341c-1.370563-1.8589773-3.7009981-3.3794621-6.5233106-3.3794621-5.2272447 0-8.9970098 3.9895757-8.9970098 9.3934432 0 5.405803 3.7697651 9.3943977 8.9970098 9.3943977 2.4421833 0 4.7248646-1.0413826 5.9187356-2.0789205.080227-.0698144.121297-.1702272.121297-.2763674v-2.9309583c0-.1836175-.148994-.3337462-.33333-.3337462h-6.7229249c-.2674266 0-.484233-.2170796-.484233-.483875v-4.3500758c0-.26775.2168064-.4848295.484233-.4848295h12.0542759v-6.4557766l-3.892019 2.1315266c-.207255.113803-.482324.0449431-.622724-.1453561zm-56.5869007 3.0547045h7.1804171c2.0563232 0 3.3418832-1.1590038 3.3418832-3.0026818 0-1.7595454-1.28556-3.0026818-3.3418832-3.0026818h-7.1804171c-.2464148 0-.4450751.1998447-.4450751.4456136v5.1141364c0 .2457689.1986603.4456136.4450751.4456136zm29.1930079 16.8445985c0 .2208977-.1786034.3987879-.3982735.3987879h-5.286461c-.2206272 0-.3992306-.1778902-.3992306-.3987879v-27.8121401c0-.2199432.1786034-.3987614.3992306-.3987614h5.286461c.2196701 0 .3982735.1788182.3982735.3987614zm30.3892668-66.58985983-52.4271677 38.37895833h1.3533721c5.4411859 0 8.2252924 3.4731667 8.2252924 7.2905796 0 2.9702007-1.5501208 5.1638787-3.6303222 6.1335378-.3457451.1616099-.3333288.6512122.0200571.7956137 2.4249901.9935492 4.1680432 3.5917424 4.1680432 6.6259772 0 4.3328675-2.8280424 7.7639811-8.3112527 7.7639811h-15.0637853c-.2464151 0-.4460302-.1989167-.4460302-.4456402v-18.1471287l-38.88962792 28.469106c-.74497527.5460265-.36007125 1.7279924.56446224 1.7279924h105.00142198c.527214 0 .955097-.4284053.955097-.9562689v-14.3985758c-2.809896 2.6230644-6.504209 4.2659432-11.0390082 4.2659432-8.3962561 0-15.2509849-5.7902197-15.2509849-14.7992462 0-9.051106 6.8547288-14.7982916 15.2509849-14.7982916 5.2797742 0 8.8164972 2.3945037 11.0390082 5.3197348v-42.45454924c0-.78222349-.888239-1.23359091-1.51956-.77172349zm-59.5822747 61.62664773h7.437338c2.270265 0 3.6408286-1.2010833 3.6408286-3.2599318 0-1.8006705-1.2836499-3.2599318-3.6408286-3.2599318h-7.437338c-.2464148 0-.4450751.1998712-.4450751.4456136v5.6286098c0 .245769.1986603.4456402.4450751.4456402zm91.5743857-.8678144-3.276936-1.7012121c-.211077-.1099849-.477549-.029644-.605532.1711818-1.385846 2.1755152-3.942639 3.7906326-6.721015 3.7906326-5.454557 0-9.504168-4.3749205-9.504168-10.3382311 0-6.0474432 4.049611-10.3372765 9.504168-10.3372765 2.776465 0 5.332305 1.5749735 6.719106 3.7801326.128938.2055985.398273.2849848.612216.1692727l3.252105-1.7738901c.24737-.1348296.334284-.4437046.182421-.6827652-2.057276-3.2417689-5.464107-5.9537386-10.765848-5.9537386-8.141244 0-14.463984 5.9632841-14.463984 14.7982651 0 8.7938561 6.32274 14.7992462 14.463984 14.7992462 5.296011 0 8.663682-2.7837197 10.790682-6.0273712.161411-.2457689.072588-.5594166-.187199-.6942462zm17.080949 2.2608144c-5.584449 0-9.142185-4.4610152-9.142185-10.3382576 0-5.9183409 3.557736-10.3372765 9.142185-10.3372765 5.542428 0 9.141231 4.4189356 9.141231 10.3372765 0 5.8772424-3.598803 10.3382576-9.141231 10.3382576zm-3.906345-24.6363939c-6.144138 1.6438333-10.199477 7.1806212-10.199477 14.2981363 0 8.5366326 5.832774 14.7992462 14.105822 14.7992462 7.044795 0 12.362772-4.5872272 13.749572-11.2619924 2.258805-10.8699129-7.272106-20.6124015-17.655917-17.8353901zm52.328127-.0278409h-6.271168c-.278886 0-.529123.1702272-.631318.4303409l-7.584423 19.6312613-7.627401-19.6331704c-.102195-.2582046-.352432-.4284318-.631321-.4284318h-6.272119c-.185288 0-.336194.1511098-.336194.3366098v27.9374508c0 .1855.150906.3365833.336194.3365833h4.340915c.185288 0 .336193-.1510833.336193-.3365833v-21.754197l8.722899 21.9387424c.036294.0917955.125117.1520379.223494.1520379h1.814683c.098374 0 .187197-.0602424.223491-.1520379l8.679921-21.9387424v21.754197c0 .1855.149948.3365833.336193.3365833h4.339961c.186242 0 .336193-.1510833.336193-.3365833v-27.9374508c0-.1855-.149951-.3366098-.336193-.3366098zm64.103892 0h-18.546068c-.285574 0-.516706.2314242-.516706.5173636v27.5759432c0 .2859394.231132.5173371.516706.5173371h18.546068c.285576 0 .516708-.2313977.516708-.5173371v-3.3832803c0-.2859129-.231132-.5173372-.516708-.5173372h-13.532764c-.285576 0-.516708-.2314242-.516708-.5173371v-6.9444507c0-.2859129.231132-.5173372.516708-.5173372h13.233819c.284618 0 .516708-.2323787.516708-.5173371v-3.3832803c0-.2859394-.23209-.5173371-.516708-.5173371h-13.233819c-.285576 0-.516708-.2314242-.516708-.5173371v-6.3429546c0-.2859128.231132-.5173371.516708-.5173371h13.532764c.285576 0 .516708-.2323788.516708-.5173371v-3.3832803c0-.2859394-.231132-.5173636-.516708-.5173636zm19.551498 13.5115378h-6.385776c-.282708 0-.511931-.2295151-.511931-.5125644v-8.0690113c0-.2830493.229223-.5125644.511931-.5125644h6.385776c2.826131 0 4.88341 1.7595454 4.88341 4.5050038 0 2.7875113-2.057279 4.5891363-4.88341 4.5891363zm3.933088 3.7122273c3.198621-.8070947 6.090652-3.5496629 6.090652-8.2592841 0-5.3187803-3.726787-8.9640833-9.381914-8.9640833h-12.040904c-.28271 0-.511931.2294886-.511931.5125644v27.5845606c0 .2830492.229221.5135189.511931.5135189h3.988483c.28271 0 .512888-.2304697.512888-.5135189v-9.6554659c0-.2830493.229223-.5125644.511931-.5125644h4.208156c.181469 0 .34861.0956401.441254.2514962l5.999918 10.1776023c.091689.155856.259787.2524507.441254.2524507h4.609299c.402094 0 .649464-.4408409.435524-.7822235-1.322809-2.1162272-4.955043-7.9265454-6.149868-9.8381288-.190066-.3021666-.012417-.6799015.333327-.7669242zm45.460503-12.8060758h13.558552c.277934 0 .503337-.2256704.503337-.5049015v-3.4081515c0-.2782765-.225403-.5049015-.503337-.5049015h-18.571854c-.277934 0-.504292.226625-.504292.5049015v27.6008144c0 .2792311.226358.504928.504292.504928h18.571854c.277934 0 .503337-.2256969.503337-.504928v-3.4081515c0-.27825-.225403-.503947-.503337-.503947h-13.558552c-.278889 0-.504292-.226625-.504292-.5049015v-6.97025c0-.2792311.225403-.504928.504292-.504928h13.258652c.278889 0 .504292-.2256705.504292-.5049015v-3.4081516c0-.2782765-.225403-.5049015-.504292-.5049015h-13.258652c-.278889 0-.504292-.2256704-.504292-.5049015v-6.3678257c0-.2792311.225403-.5049016.504292-.5049016zm-10.632231 17.8667576-3.276939-1.7012121c-.211076-.1099583-.477548-.0296439-.605529.1711818-1.385846 2.1755152-3.942641 3.7906591-6.721015 3.7906591-5.454559 0-9.504168-4.374947-9.504168-10.3382311 0-6.0474696 4.049609-10.3372765 9.504168-10.3372765 2.776465 0 5.332303 1.5749735 6.719103 3.7801326.128938.2055985.398277.2849583.612217.1692462l3.252104-1.7738636c.247371-.1348561.334285-.4446856.182424-.6827917-2.057278-3.2417424-5.464107-5.9537386-10.765848-5.9537386-8.141247 0-14.463986 5.9633106-14.463986 14.7982916 0 8.7938561 6.322739 14.7992197 14.463986 14.7992197 5.295054 0 8.66368-2.7836931 10.79068-6.0273712.161414-.2457424.072588-.5594166-.187197-.6942462zm-85.406085-22.2844469h-6.271165c-.278889 0-.529123.1702272-.631321.4303409l-7.584423 19.6312613-7.627401-19.6331704c-.102195-.2582046-.352432-.4284318-.631318-.4284318h-6.272122c-.185288 0-.336193.1511098-.336193.3366098v27.9374508c0 .1855.150905.3365833.336193.3365833h4.340915c.18529 0 .336193-.1510833.336193-.3365833v-21.754197l8.722899 21.9387424c.036294.0917955.125117.1520379.223494.1520379h1.814684c.098373 0 .187199-.0602424.223493-.1520379l8.679918-21.9387424v21.754197c0 .1855.149951.3365833.336193.3365833h4.339961c.186242 0 .336193-.1510833.336193-.3365833v-27.9374508c0-.1855-.149951-.3366098-.336193-.3366098z" fill="#34313f" transform="translate(25 20)"/></svg>

<?xml version="1.0" encoding="UTF-8"?>
<svg width="400px" height="140px" viewBox="0 0 400 140" version="1.1" xmlns="http://www.w3.org/2000/svg" xmlns:xlink="http://www.w3.org/1999/xlink">
    <title>Artboard</title>
    <g id="Artboard" stroke="none" stroke-width="1" fill="none" fill-rule="evenodd">
        <g id="BigCommerce" transform="translate(25.000000, 20.000000)" fill="#34313F" fill-rule="nonzero">
            <path d="M102.398914,46.8765341 C101.028351,45.0175568 98.6979159,43.497072 95.8756034,43.497072 C90.6483587,43.497072 86.8785936,47.4866477 86.8785936,52.8905152 C86.8785936,58.2963182 90.6483587,62.2849129 95.8756034,62.2849129 C98.3177867,62.2849129 100.600468,61.2435303 101.794339,60.2059924 C101.874566,60.136178 101.915636,60.0357652 101.915636,59.929625 L101.915636,56.9986667 C101.915636,56.8150492 101.766642,56.6649205 101.582306,56.6649205 L94.8593811,56.6649205 C94.5919545,56.6649205 94.3751481,56.4478409 94.3751481,56.1810455 L94.3751481,51.8309697 C94.3751481,51.5632197 94.5919545,51.3461402 94.8593811,51.3461402 L106.913657,51.3461402 L106.913657,44.8903636 L103.021638,47.0218902 C102.814383,47.1356932 102.539314,47.0668333 102.398914,46.8765341 Z M45.8120133,49.9312386 L52.9924304,49.9312386 C55.0487536,49.9312386 56.3343136,48.7722348 56.3343136,46.9285568 C56.3343136,45.1690114 55.0487536,43.925875 52.9924304,43.925875 L45.8120133,43.925875 C45.5655985,43.925875 45.3669382,44.1257197 45.3669382,44.3714886 L45.3669382,49.485625 C45.3669382,49.7313939 45.5655985,49.9312386 45.8120133,49.9312386 Z M75.0050212,66.7758371 C75.0050212,66.9967348 74.8264178,67.174625 74.6067477,67.174625 L69.3202867,67.174625 C69.0996595,67.174625 68.9210561,66.9967348 68.9210561,66.7758371 L68.9210561,38.963697 C68.9210561,38.7437538 69.0996595,38.5649356 69.3202867,38.5649356 L74.6067477,38.5649356 C74.8264178,38.5649356 75.0050212,38.7437538 75.0050212,38.963697 L75.0050212,66.7758371 Z M105.394288,0.185977273 L52.9671203,38.5649356 L54.3204924,38.5649356 C59.7616783,38.5649356 62.5457848,42.0381023 62.5457848,45.8555152 C62.5457848,48.8257159 60.995664,51.0193939 58.9154626,51.989053 C58.5697175,52.1506629 58.5821338,52.6402652 58.9355197,52.7846667 C61.3605098,53.7782159 63.1035629,56.3764091 63.1035629,59.4106439 C63.1035629,63.7435114 60.2755205,67.174625 54.7923102,67.174625 L39.7285249,67.174625 C39.4821098,67.174625 39.2824947,66.9757083 39.2824947,66.7289848 L39.2824947,48.5818561 L0.39286678,77.0509621 C-0.352108485,77.5969886 0.0327955303,78.7789545 0.957329015,78.7789545 L105.958751,78.7789545 C106.485965,78.7789545 106.913848,78.3505492 106.913848,77.8226856 L106.913848,63.4241098 C104.103952,66.0471742 100.409639,67.690053 95.8748398,67.690053 C87.4785837,67.690053 80.6238549,61.8998333 80.6238549,52.8908068 C80.6238549,43.8397008 87.4785837,38.0925152 95.8748398,38.0925152 C101.154614,38.0925152 104.691337,40.4870189 106.913848,43.41225 L106.913848,0.957700758 C106.913848,0.175477273 106.025609,-0.275890152 105.394288,0.185977273 Z M45.8120133,61.812625 L53.2493513,61.812625 C55.5196163,61.812625 56.8901799,60.6115417 56.8901799,58.5526932 C56.8901799,56.7520227 55.60653,55.2927614 53.2493513,55.2927614 L45.8120133,55.2927614 C45.5655985,55.2927614 45.3669382,55.4926326 45.3669382,55.738375 L45.3669382,61.3669848 C45.3669382,61.6127538 45.5655985,61.812625 45.8120133,61.812625 Z M137.386399,60.9448106 L134.109463,59.2435985 C133.898386,59.1336136 133.631914,59.2139545 133.503931,59.4147803 C132.118085,61.5902955 129.561292,63.2054129 126.782916,63.2054129 C121.328359,63.2054129 117.278748,58.8304924 117.278748,52.8671818 C117.278748,46.8197386 121.328359,42.5299053 126.782916,42.5299053 C129.559381,42.5299053 132.115221,44.1048788 133.502022,46.3100379 C133.63096,46.5156364 133.900295,46.5950227 134.114238,46.4793106 L137.366343,44.7054205 C137.613713,44.5705909 137.700627,44.2617159 137.548764,44.0226553 C135.491488,40.7808864 132.084657,38.0689167 126.782916,38.0689167 C118.641672,38.0689167 112.318932,44.0322008 112.318932,52.8671818 C112.318932,61.6610379 118.641672,67.666428 126.782916,67.666428 C132.078927,67.666428 135.446598,64.8827083 137.573598,61.6390568 C137.735009,61.3932879 137.646186,61.0796402 137.386399,60.9448106 Z M154.467348,63.205625 C148.882899,63.205625 145.325163,58.7446098 145.325163,52.8673674 C145.325163,46.9490265 148.882899,42.5300909 154.467348,42.5300909 C160.009776,42.5300909 163.608579,46.9490265 163.608579,52.8673674 C163.608579,58.7446098 160.009776,63.205625 154.467348,63.205625 Z M150.561003,38.5692311 C144.416865,40.2130644 140.361526,45.7498523 140.361526,52.8673674 C140.361526,61.404 146.1943,67.6666136 154.467348,67.6666136 C161.512143,67.6666136 166.83012,63.0793864 168.21692,56.4046212 C170.475725,45.5347083 160.944814,35.7922197 150.561003,38.5692311 Z M202.88913,38.5413902 L196.617962,38.5413902 C196.339076,38.5413902 196.088839,38.7116174 195.986644,38.9717311 L188.402221,58.6029924 L180.77482,38.969822 C180.672625,38.7116174 180.422388,38.5413902 180.143499,38.5413902 L173.87138,38.5413902 C173.686092,38.5413902 173.535186,38.6925 173.535186,38.878 L173.535186,66.8154508 C173.535186,67.0009508 173.686092,67.1520341 173.87138,67.1520341 L178.212295,67.1520341 C178.397583,67.1520341 178.548488,67.0009508 178.548488,66.8154508 L178.548488,45.0612538 L187.271387,66.9999962 C187.307681,67.0917917 187.396504,67.1520341 187.494881,67.1520341 L189.309564,67.1520341 C189.407938,67.1520341 189.496761,67.0917917 189.533055,66.9999962 L198.212976,45.0612538 L198.212976,66.8154508 C198.212976,67.0009508 198.362924,67.1520341 198.549169,67.1520341 L202.88913,67.1520341 C203.075372,67.1520341 203.225323,67.0009508 203.225323,66.8154508 L203.225323,38.878 C203.225323,38.6925 203.075372,38.5413902 202.88913,38.5413902 Z M266.993022,38.5413902 L248.446954,38.5413902 C248.16138,38.5413902 247.930248,38.7728144 247.930248,39.0587538 L247.930248,66.634697 C247.930248,66.9206364 248.16138,67.1520341 248.446954,67.1520341 L266.993022,67.1520341 C267.278598,67.1520341 267.50973,66.9206364 267.50973,66.634697 L267.50973,63.2514167 C267.50973,62.9655038 267.278598,62.7340795 266.993022,62.7340795 L253.460258,62.7340795 C253.174682,62.7340795 252.94355,62.5026553 252.94355,62.2167424 L252.94355,55.2722917 C252.94355,54.9863788 253.174682,54.7549545 253.460258,54.7549545 L266.694077,54.7549545 C266.978695,54.7549545 267.210785,54.5225758 267.210785,54.2376174 L267.210785,50.8543371 C267.210785,50.5683977 266.978695,50.337 266.694077,50.337 L253.460258,50.337 C253.174682,50.337 252.94355,50.1055758 252.94355,49.8196629 L252.94355,43.4767083 C252.94355,43.1907955 253.174682,42.9593712 253.460258,42.9593712 L266.993022,42.9593712 C267.278598,42.9593712 267.50973,42.7269924 267.50973,42.4420341 L267.50973,39.0587538 C267.50973,38.7728144 267.278598,38.5413902 266.993022,38.5413902 Z M286.54452,52.052928 L280.158744,52.052928 C279.876036,52.052928 279.646813,51.8234129 279.646813,51.5403636 L279.646813,43.4713523 C279.646813,43.188303 279.876036,42.9587879 280.158744,42.9587879 L286.54452,42.9587879 C289.370651,42.9587879 291.42793,44.7183333 291.42793,47.4637917 C291.42793,50.251303 289.370651,52.052928 286.54452,52.052928 Z M290.477608,55.7651553 C293.676229,54.9580606 296.56826,52.2154924 296.56826,47.5058712 C296.56826,42.1870909 292.841473,38.5417879 287.186346,38.5417879 L275.145442,38.5417879 C274.862732,38.5417879 274.633511,38.7712765 274.633511,39.0543523 L274.633511,66.6389129 C274.633511,66.9219621 274.862732,67.1524318 275.145442,67.1524318 L279.133925,67.1524318 C279.416635,67.1524318 279.646813,66.9219621 279.646813,66.6389129 L279.646813,56.983447 C279.646813,56.7003977 279.876036,56.4708826 280.158744,56.4708826 L284.3669,56.4708826 C284.548369,56.4708826 284.71551,56.5665227 284.808154,56.7223788 L290.808072,66.8999811 C290.899761,67.0558371 291.067859,67.1524318 291.249326,67.1524318 L295.858625,67.1524318 C296.260719,67.1524318 296.508089,66.7115909 296.294149,66.3702083 C294.97134,64.2539811 291.339106,58.4436629 290.144281,56.5320795 C289.954215,56.2299129 290.131864,55.852178 290.477608,55.7651553 Z M335.938111,42.9590795 L349.496663,42.9590795 C349.774597,42.9590795 350,42.7334091 350,42.454178 L350,39.0460265 C350,38.76775 349.774597,38.541125 349.496663,38.541125 L330.924809,38.541125 C330.646875,38.541125 330.420517,38.76775 330.420517,39.0460265 L330.420517,66.6468409 C330.420517,66.926072 330.646875,67.1517689 330.924809,67.1517689 L349.496663,67.1517689 C349.774597,67.1517689 350,66.926072 350,66.6468409 L350,63.2386894 C350,62.9604394 349.774597,62.7347424 349.496663,62.7347424 L335.938111,62.7347424 C335.659222,62.7347424 335.433819,62.5081174 335.433819,62.2298409 L335.433819,55.2595909 C335.433819,54.9803598 335.659222,54.7546629 335.938111,54.7546629 L349.196763,54.7546629 C349.475652,54.7546629 349.701055,54.5289924 349.701055,54.2497614 L349.701055,50.8416098 C349.701055,50.5633333 349.475652,50.3367083 349.196763,50.3367083 L335.938111,50.3367083 C335.659222,50.3367083 335.433819,50.1110379 335.433819,49.8318068 L335.433819,43.4639811 C335.433819,43.18475 335.659222,42.9590795 335.938111,42.9590795 Z M325.30588,60.8258371 L322.028941,59.124625 C321.817865,59.0146667 321.551393,59.0949811 321.423412,59.2958068 C320.037566,61.471322 317.480771,63.0864659 314.702397,63.0864659 C309.247838,63.0864659 305.198229,58.7115189 305.198229,52.7482348 C305.198229,46.7007652 309.247838,42.4109583 314.702397,42.4109583 C317.478862,42.4109583 320.0347,43.9859318 321.4215,46.1910909 C321.550438,46.3966894 321.819777,46.4760492 322.033717,46.3603371 L325.285821,44.5864735 C325.533192,44.4516174 325.620106,44.1417879 325.468245,43.9036818 C323.410967,40.6619394 320.004138,37.9499432 314.702397,37.9499432 C306.56115,37.9499432 300.238411,43.9132538 300.238411,52.7482348 C300.238411,61.5420909 306.56115,67.5474545 314.702397,67.5474545 C319.997451,67.5474545 323.366077,64.7637614 325.493077,61.5200833 C325.654491,61.2743409 325.565665,60.9606667 325.30588,60.8258371 Z M239.899795,38.5413902 L233.62863,38.5413902 C233.349741,38.5413902 233.099507,38.7116174 232.997309,38.9717311 L225.412886,58.6029924 L217.785485,38.969822 C217.68329,38.7116174 217.433053,38.5413902 217.154167,38.5413902 L210.882045,38.5413902 C210.696757,38.5413902 210.545852,38.6925 210.545852,38.878 L210.545852,66.8154508 C210.545852,67.0009508 210.696757,67.1520341 210.882045,67.1520341 L215.22296,67.1520341 C215.40825,67.1520341 215.559153,67.0009508 215.559153,66.8154508 L215.559153,45.0612538 L224.282052,66.9999962 C224.318346,67.0917917 224.407169,67.1520341 224.505546,67.1520341 L226.32023,67.1520341 C226.418603,67.1520341 226.507429,67.0917917 226.543723,66.9999962 L235.223641,45.0612538 L235.223641,66.8154508 C235.223641,67.0009508 235.373592,67.1520341 235.559834,67.1520341 L239.899795,67.1520341 C240.086037,67.1520341 240.235988,67.0009508 240.235988,66.8154508 L240.235988,38.878 C240.235988,38.6925 240.086037,38.5413902 239.899795,38.5413902 Z" id="BG---Logo-Main"></path>
        </g>
    </g>
</svg>
